Papirus/64x64/apps/org.kde.merkuro.calendar.svg

<!-- Created with Inkscape (http://www.inkscape.org/) -->
<svg width="64" height="64" version="1.1" viewBox="0 0 64 64" xmlns="http://www.w3.org/2000/svg">
 <rect x="4" y="10" width="56" height="50" ry="6" style="opacity:.2"/>
 <rect x="4" y="11" width="56" height="48" ry="6" style="fill:#e97e10"/>
 <path d="m10 9c-3.3239968 0-6 2.676003-6 6v6h56v-6c0-3.323997-2.676004-6-6-6z" style="fill:#643106"/>
 <path d="m33.826 44.09631 2.663342 3.001032c0.28336 0.3406 0.742796 0.3406 1.026144 0l5.840514-6.617032" stroke="#0097d7" style="fill:none;stroke-width:1.5;stroke:#ffffff"/>
 <path d="m24 29c-1.107998 0-2 0.892002-2 2v4c0 1.107998 0.892002 2 2 2h4c1.107998 0 2-0.892002 2-2v-4c0-1.107998-0.892002-2-2-2zm24 0c-1.108 0-2 0.892002-2 2v4c0 1.107998 0.892 2 2 2h4c1.108 0 2-0.892002 2-2v-4c0-1.107998-0.892-2-2-2zm-36 12c-1.107999 0-2 0.892-2 2v4c0 1.108 0.892001 2 2 2h4c1.107999 0 2-0.892 2-2v-4c0-1.108-0.892001-2-2-2zm12 0c-1.107998 0-2 0.892-2 2v4c0 1.108 0.892002 2 2 2h4c1.107998 0 2-0.892 2-2v-4c0-1.108-0.892002-2-2-2z" style="fill:#ffffff"/>
 <rect x="34" y="29" width="8" height="8" ry="2" style="fill:#ffffff;opacity:.6"/>
 <rect x="46" y="41" width="8" height="8" ry="2" style="fill:#ffffff;opacity:.6"/>
 <path d="m10 9c-3.3239966 0-6 2.676003-6 6v1c0-3.323997 2.6760034-6 6-6h44c3.323996 0 6 2.676003 6 6v-1c0-3.323997-2.676004-6-6-6z" style="fill:#ffffff;opacity:.1"/>
 <rect x="14" y="5" width="6" height="12" ry="3" style="fill:#351a03"/>
 <rect x="44" y="5" width="6" height="12" ry="3" style="fill:#351a03"/>
</svg>

<svg xmlns="http://www.w3.org/2000/svg" width="64" height="64" version="1.1">
 <rect style="opacity:0.2" width="56" height="44" x="4" y="16" ry="6"/>
 <rect style="fill:#e97e10" width="56" height="44" x="4" y="15" ry="6"/>
 <rect style="fill:#ffffff;opacity:0.6" width="8" height="8" x="34" y="29" ry="2"/>
 <rect style="fill:#ffffff;opacity:0.6" width="8" height="8" x="46" y="41" ry="2"/>
 <path style="fill:#643106" d="M 10,9 C 6.676,9 4,11.676 4,15 V 21 H 60 V 15 C 60,11.676 57.324,9 54,9 Z"/>
 <path style="opacity:0.1;fill:#ffffff" d="M 10,9 C 6.676,9 4,11.676 4,15 V 16 C 4,12.676 6.676,10 10,10 H 54 C 57.324,10 60,12.676 60,16 V 15 C 60,11.676 57.324,9 54,9 Z"/>
 <rect style="fill:#351a03" width="6" height="12" x="14" y="5" ry="3"/>
 <rect style="fill:#351a03" width="6" height="12" x="44" y="5" ry="3"/>
 <path style="fill:none;stroke:#ffffff;stroke-width:2;stroke-linecap:round;stroke-linejoin:round" d="M 35,45 37,47.417 42,42"/>
 <rect style="fill:#ffffff" width="8" height="8" x="46" y="29" ry="2"/>
 <rect style="fill:#ffffff" width="8" height="8" x="22" y="29" ry="2"/>
 <rect style="fill:#ffffff" width="8" height="8" x="22" y="41" ry="2"/>
 <rect style="fill:#ffffff" width="8" height="8" x="10" y="41" ry="2"/>
 <rect style="opacity:0.2" width="56" height="1" x="4" y="21"/>
</svg>
